X: 7
T:Aye Me (Symphony)
M:4/4
L:1/8
Q:200
C:Playford
O:Playford
A:English
K:C
g4 e4|d2 BA G2 AB|c2 c2 d2 d2|e6 ee|e2 fg a2 cc|c2 de f2 AA|BF e2 d3 c|c6 ||
|: A2 AB c2 Bc|d2 G2 G2 ee|e2 de fged|d6 gg|a2 ee f2 ^ff|g2 dc B2 gg|a2 e2 d3 c|c6:|

